brandFactory_export/2.Regular/Data network_2Regular.svg

<?xml version="1.0" encoding="UTF-8"?>
<svg width="24px" height="24px" viewBox="0 0 24 24" version="1.1" xmlns="http://www.w3.org/2000/svg" xmlns:xlink="http://www.w3.org/1999/xlink">
    <title>2.Regular/Data network_2Regular</title>
    <g id="Symbols" stroke="none" stroke-width="1" fill="none" fill-rule="evenodd">
        <g id="2.Regular/Data-network_2Regular" fill="#5CB615" fill-rule="nonzero">
            <path d="M21.7142857,14.2689076 L18.6285714,14.2689076 C18.8436975,13.1529412 18.9680672,11.9596639 18.9680672,10.6991597 C18.9680672,9.6605042 18.8907563,8.6789916 18.7428571,7.74453782 L21.8588235,7.74453782 C22.0537815,8.6487395 22.1613445,9.6302521 22.1613445,10.7193277 C22.1647059,12.0470588 22.0067227,13.2302521 21.7142857,14.2689076 L21.7142857,14.2689076 Z M16.312605,19.5630252 C17.1394958,18.5815126 17.8117647,17.2739496 18.2689076,15.7142857 L21.1798319,15.7142857 C20.2352941,17.6672269 18.6117647,18.9445378 16.312605,19.5630252 Z M13.5092437,19.8689076 L13.5092437,15.7210084 L16.7495798,15.7210084 C16.0403361,17.8991597 14.8739496,19.4487395 13.5092437,19.8689076 Z M13.5092437,7.74453782 L17.2571429,7.74453782 C17.4218487,8.67563025 17.5092437,9.67058824 17.5092437,10.6991597 C17.5092437,11.9596639 17.3815126,13.1697479 17.1495798,14.2689076 L13.5092437,14.2789916 L13.5092437,7.74453782 Z M13.5092437,1.5697479 C14.9983193,2.02352941 16.2554622,3.81176471 16.9445378,6.30252101 L13.5092437,6.30252101 L13.5092437,1.5697479 L13.5092437,1.5697479 Z M21.4252101,6.30252101 L18.4672269,6.30252101 C18.0201681,4.50420168 17.3008403,2.98151261 16.3831933,1.88571429 C18.8537815,2.56806723 20.5478992,4.05042017 21.4252101,6.30252101 Z M12.0504202,6.30252101 L8.35966387,6.30252101 C9.12941176,3.83865546 10.5008403,2.01008403 12.0504202,1.55966387 L12.0504202,6.30252101 Z M12.0504202,14.2789916 L9.99663866,14.2789916 L9.99663866,12.3260504 C9.99663866,11.7008403 9.65714286,10.8638655 8.02016807,10.3731092 C7.92268908,10.3428571 7.81512605,10.3226891 7.71764706,10.3058824 C7.73781513,9.42184874 7.83529412,8.56470588 8,7.74453782 L12.0504202,7.74453782 L12.0504202,14.2789916 Z M12.0504202,19.9563025 C11.3781513,19.9294118 10.7260504,19.8789916 10.1243697,19.7647059 C10.0840336,19.7647059 10.0369748,19.7747899 9.99663866,19.7747899 L9.99663866,15.7243697 L12.0504202,15.7243697 L12.0504202,19.9563025 Z M8.53781513,15.1361345 C8.41008403,15.2806723 8.11764706,15.492437 7.61344538,15.6470588 C6.22184874,16.0504202 3.78823529,16.0504202 2.40672269,15.6470588 C1.86218487,15.4823529 1.5697479,15.2806723 1.46218487,15.1563025 L1.46218487,13.7142857 C1.62689076,13.7815126 1.79159664,13.8487395 1.98655462,13.9058824 C2.80336134,14.1546218 3.88571429,14.292437 5.00504202,14.292437 C6.13445378,14.292437 7.20336134,14.1579832 8.03361345,13.9058824 C8.21848739,13.8554622 8.37310924,13.7915966 8.54117647,13.7243697 L8.54117647,15.1361345 L8.53781513,15.1361345 Z M8.53781513,18.2722689 C8.41008403,18.4168067 8.11764706,18.6285714 7.61344538,18.7831933 C6.22184874,19.1865546 3.78823529,19.1865546 2.40672269,18.7831933 C1.82521008,18.6117647 1.55966387,18.410084 1.46218487,18.292437 L1.46218487,16.8302521 C1.62689076,16.897479 1.79159664,16.9747899 1.98655462,17.0218487 C2.80336134,17.2739496 3.88571429,17.4084034 5.00504202,17.4084034 C6.13445378,17.4084034 7.20336134,17.2739496 8.03361345,17.0218487 C8.20840336,16.9747899 8.37310924,16.907563 8.54117647,16.8302521 L8.54117647,18.2722689 L8.53781513,18.2722689 Z M8.53781513,21.2941176 C8.53781513,21.4386555 8.24537815,21.6672269 7.60336134,21.8621849 C6.20168067,22.2655462 3.78823529,22.2655462 2.39663866,21.8621849 C1.75462185,21.6672269 1.46218487,21.4386555 1.46218487,21.2941176 L1.46218487,19.9663866 C1.62689076,20.0336134 1.79159664,20.1008403 1.98655462,20.1579832 C2.80336134,20.4067227 3.88571429,20.5445378 5.00504202,20.5445378 C6.13445378,20.5445378 7.20336134,20.410084 8.03361345,20.1579832 C8.20840336,20.107563 8.37310924,20.0336134 8.54117647,19.9663866 L8.54117647,21.2941176 L8.53781513,21.2941176 Z M2.39327731,11.7579832 C3.77478992,11.3445378 6.21848739,11.3445378 7.6,11.7579832 C8.02016807,11.8823529 8.28235294,12.0268908 8.41680672,12.1411765 C8.29915966,12.2453782 8.06722689,12.3831933 7.6,12.5243697 C6.21848739,12.9277311 3.78487395,12.9277311 2.40336134,12.5243697 C1.95630252,12.389916 1.71092437,12.2453782 1.58655462,12.1310924 C1.71428571,12.0268908 1.95630252,11.892437 2.39327731,11.7579832 L2.39327731,11.7579832 Z M3.70756303,7.74453782 L6.50084034,7.74453782 C6.37310924,8.49411765 6.29579832,9.26386555 6.26890756,10.0638655 C5.33445378,9.98655462 4.33277311,9.98655462 3.42521008,10.0907563 C3.45546218,9.25714286 3.54285714,8.46722689 3.70756303,7.74453782 L3.70756303,7.74453782 Z M9.05210084,1.92605042 C8.08739496,3.03193277 7.3210084,4.54453782 6.83361345,6.30588235 L4.13781513,6.30588235 C5.00168067,4.0907563 6.6487395,2.62521008 9.05210084,1.92605042 Z M23.1663866,6.96470588 C23.1563025,6.87058824 23.1260504,6.77310924 23.0789916,6.69579832 C21.805042,2.34621849 18.2621849,0 12.7798319,0 C5.81176471,0 2.07394958,3.58991597 1.95630252,10.3831933 C0.894117647,10.6991597 0.25210084,11.210084 0.0571428571,11.8857143 L0.0571428571,11.8957983 C0.0168067227,12.0302521 0,12.1747899 0,12.3294118 L0,21.297479 C0,21.912605 0.339495798,22.7596639 1.97647059,23.2403361 C2.80336134,23.492437 3.87563025,23.6268908 4.99495798,23.6268908 C6.11428571,23.6268908 7.19327731,23.492437 8.02352941,23.2403361 C9.6605042,22.7596639 10,21.912605 10,21.297479 L10,21.210084 C10.8672269,21.3546218 11.7915966,21.4319328 12.7831933,21.4319328 C19.8789916,21.4319328 23.6268908,17.7277311 23.6268908,10.7226891 C23.6235294,9.34453782 23.4689076,8.09411765 23.1663866,6.96470588 Z" id="Data-network_2Regular"></path>
        </g>
    </g>
</svg>

<svg width="24" height="24" viewBox="0 0 24 24" xmlns="http://www.w3.org/2000/svg"><path d="M21.714 14.269H18.63c.215-1.116.34-2.31.34-3.57 0-1.038-.078-2.02-.226-2.954h3.116c.195.904.302 1.885.302 2.974.004 1.328-.154 2.511-.447 3.55zm-5.401 5.294c.826-.981 1.499-2.29 1.956-3.849h2.91c-.944 1.953-2.567 3.23-4.866 3.849zm-2.804.306V15.72h3.24c-.709 2.178-1.875 3.728-3.24 4.148zm0-12.124h3.748c.165.93.252 1.926.252 2.954 0 1.26-.127 2.47-.36 3.57l-3.64.01V7.745zm0-6.175c1.49.454 2.746 2.242 3.436 4.733h-3.436V1.57zm7.916 4.733h-2.958c-.447-1.799-1.166-3.321-2.084-4.417 2.47.682 4.165 2.164 5.042 4.417zm-9.375 0H8.36c.77-2.464 2.14-4.293 3.69-4.743v4.743zm0 7.976H9.997v-1.953c0-.625-.34-1.462-1.977-1.953a2.441 2.441 0 00-.302-.067c.02-.884.117-1.741.282-2.561h4.05v6.534zm0 5.677c-.672-.027-1.324-.077-1.926-.191-.04 0-.087.01-.127.01v-4.05h2.053v4.231zm-3.512-4.82c-.128.145-.42.356-.925.511-1.391.403-3.825.403-5.206 0-.545-.165-.837-.366-.945-.49v-1.443c.165.068.33.135.525.192.816.249 1.899.386 3.018.386 1.13 0 2.198-.134 3.029-.386.184-.05.34-.114.507-.182v1.412h-.003zm0 3.136c-.128.145-.42.357-.925.511-1.391.404-3.825.404-5.206 0-.582-.171-.847-.373-.945-.49V16.83c.165.067.33.145.525.192.816.252 1.899.386 3.018.386 1.13 0 2.198-.134 3.029-.386.174-.047.34-.114.507-.192v1.442h-.003zm0 3.022c0 .145-.293.373-.935.568-1.401.404-3.815.404-5.206 0-.642-.195-.935-.423-.935-.568v-1.328c.165.068.33.135.525.192.816.249 1.899.387 3.018.387 1.13 0 2.198-.135 3.029-.387.174-.05.34-.124.507-.192v1.328h-.003zm-6.145-9.536c1.382-.413 3.825-.413 5.207 0 .42.124.682.269.817.383-.118.104-.35.242-.817.383-1.382.404-3.815.404-5.197 0-.447-.134-.692-.279-.816-.393.127-.104.37-.239.806-.373zm1.315-4.013H6.5c-.128.75-.205 1.519-.232 2.319a14.865 14.865 0 00-2.844.027c.03-.834.118-1.624.283-2.346zm5.344-5.819c-.965 1.106-1.731 2.619-2.218 4.38H4.138c.864-2.215 2.51-3.68 4.914-4.38zm14.114 5.039a.668.668 0 00-.087-.27C21.805 2.347 18.262 0 12.779 0 5.813 0 2.075 3.59 1.957 10.383.894 10.7.252 11.21.057 11.886v.01c-.04.134-.057.279-.057.433v8.968c0 .616.34 1.463 1.976 1.943.827.252 1.9.387 3.019.387 1.12 0 2.198-.135 3.029-.387C9.66 22.76 10 21.913 10 21.297v-.087a16.89 16.89 0 002.783.222c7.096 0 10.844-3.704 10.844-10.71-.003-1.377-.158-2.628-.46-3.757z" fill="#5CB615" fill-rule="nonzero"/></svg>
